icons/image-mountains-circle.svg

<svg xmlns="http://www.w3.org/2000/svg" viewBox="0 0 24 24" fill="currentColor">
  <path d="m3.75072 11.8884 2.11905-2.11901c1.06551-1.06551 2.85636-1.12547 3.8768.01613l5.28383 5.28388c.5071.5071 1.2323.5071 1.7394 0l3.4708-3.4708C20.0341 7.20222 16.4512 3.75 12 3.75c-4.54853 0-8.19041 3.60492-8.24928 8.1384Zm16.27498 2.0464L17.8304 16.13c-1.0929 1.0929-2.7677 1.0929-3.8606 0l-5.31769-5.3176-.01644-.0188c-.38273-.4374-1.17704-.4918-1.70524.0364l-2.97831 2.9783C4.77943 17.4564 8.05127 20.25 12 20.25c3.9185 0 7.1642-2.6755 8.0257-6.3152ZM2.25 12c0-5.41421 4.33579-9.75 9.75-9.75 5.4142 0 9.75 4.33579 9.75 9.75 0 5.4142-4.3358 9.75-9.75 9.75-5.41962 0-9.75-4.4412-9.75-9.75ZM15.5 8.75c-.4142 0-.75.33579-.75.75s.3358.75.75.75.75-.33579.75-.75-.3358-.75-.75-.75Zm-2.25.75c0-1.24264 1.0074-2.25 2.25-2.25s2.25 1.00736 2.25 2.25c0 1.2426-1.0074 2.25-2.25 2.25s-2.25-1.0074-2.25-2.25Z"/>
</svg>

<svg width="24" height="24" viewBox="0 0 24 24" fill="none" xmlns="http://www.w3.org/2000/svg">
<path fill-rule="evenodd" clip-rule="evenodd" d="M3.75072 11.8884L5.86977 9.76939C6.93528 8.70388 8.72613 8.64392 9.74657 9.78552L15.0304 15.0694C15.5375 15.5765 16.2627 15.5765 16.7698 15.0694L20.2406 11.5986C20.0341 7.20222 16.4512 3.75 12 3.75C7.45147 3.75 3.80959 7.35492 3.75072 11.8884ZM20.0257 13.9348L17.8304 16.13C16.7375 17.2229 15.0627 17.2229 13.9698 16.13L8.65211 10.8124L8.63567 10.7936C8.25294 10.3562 7.45863 10.3018 6.93043 10.83L3.95212 13.8083C4.77943 17.4564 8.05127 20.25 12 20.25C15.9185 20.25 19.1642 17.5745 20.0257 13.9348ZM2.25 12C2.25 6.58579 6.58579 2.25 12 2.25C17.4142 2.25 21.75 6.58579 21.75 12C21.75 17.4142 17.4142 21.75 12 21.75C6.58038 21.75 2.25 17.3088 2.25 12ZM15.5 8.75C15.0858 8.75 14.75 9.08579 14.75 9.5C14.75 9.91421 15.0858 10.25 15.5 10.25C15.9142 10.25 16.25 9.91421 16.25 9.5C16.25 9.08579 15.9142 8.75 15.5 8.75ZM13.25 9.5C13.25 8.25736 14.2574 7.25 15.5 7.25C16.7426 7.25 17.75 8.25736 17.75 9.5C17.75 10.7426 16.7426 11.75 15.5 11.75C14.2574 11.75 13.25 10.7426 13.25 9.5Z" fill="black"/>
</svg>
